!!!!SEGMENT: pl-kk--kk-i-3--008-004_anonim--missa-solenne-sanctus.krn
!!!cenid: 15xx:602
!!!COM: Anonim
!!!COM-rismID: pe30004985
!!!CDT:
!!!CNT:
!!!OPR: Missa Solenne
!!!OTL: Sanctus
!!!OMV: 004
!!!PDT:
!!!AGN:
!!!SMS-siglum: PL-Kk
!!!SMS-shelfmark: Kk.I.3
!!!SMS-shelfwork: 008-004 M
!!!SMS-variant:
!!!SMS-altvar:
!!!NIFC-rismSourceID: 1001145493
!!!NIFC-islandoraID: pl-kk:1170
!!!URL-pdf-islandora: https://repozytorium.nifc.pl/islandora/object/pl-kk%3A1170/datastream/PDF/view
!!!URL-scan: https://polish.musicsources.pl/pl/lokalizacje/galeria/rekopisy/5919 @EN{Scan on Polish Music Sources Website} @PL{Skany w portalu Dziedzictwo Muzyki Polskiej w otwartym dostępie}
!!!ONB-nifc: UWAGA: Discantus (s. 45v-46v, skan 0048-0049), Tenor (s. 34r, skan 0206), Bassus (s. 43r-44r, skan 0346-0347). Następna część: Benedictus
!!!AIN: 1 alto 1 bass 1 tenor
!!!key:
**kern	**text	**kern	**text	**kern	**text
*part3	*part3	*part2	*part2	*part1	*part1
*staff3	*staff3	*staff2	*staff2	*staff1	*staff1
*I"Bassus	*	*I"Tenor	*	*I"Discantus	*
*I'B	*	*I'T	*	*I'A	*
*Ibass	*	*Itenor	*	*Ialto	*
*ICvox	*	*ICvox	*	*ICvox	*
*clefF4	*	*clefC4	*	*clefC3	*
*k[]	*	*k[]	*	*k[]	*
*C:	*	*C:	*	*C:	*
=1-	=1-	=1-	=1-	=1-	=1-
!LO:TX:t=P:problem=przed kluczem adnotacja T. .S. d. (?)	!	!	!	!	!
!LO:TX:t=P:problem=przed kluczem piąta linia podpisana literą A(?)	!	!	!	!	!
*	*	*	*	*lig	*
1D\	San-	1D/	San-	1d\	San-
2AA/	.	1E/	.	1c\	.
2C/	.	.	.	.	.
*	*	*	*	*Xlig	*
=2-	=2-	=2-	=2-	=2-	=2-
*lig	*	*lig	*	*	*
1D\	.	1F/	.	2A/	.
.	.	.	.	1d\	.
1AA/	.	1E/	.	.	.
.	.	.	.	2c/	.
*Xlig	*	*Xlig	*	*	*
=3-	=3-	=3-	=3-	=3-	=3-
1A\	.	1D/	.	1d\	.
*	*	*lig	*	*	*
1G\	.	1G/	.	1B/	.
=4-	=4-	=4-	=4-	=4-	=4-
2E/	.	1G/	.	2c/	.
*	*	*Xlig	*	*	*
2C/	.	.	.	1e\	.
2D/	.	1F/	.	.	.
2BB/	.	.	.	1d\	.
=5-	=5-	=5-	=5-	=5-	=5-
1C/	.	1E/	.	.	.
.	.	.	.	1c\	.
*custos:GG	*	*	*	*custos:B	*
!LO:PB:g=original	!	!	!	!	!
1GG/	.	1D/	.	.	.
!	!	!	!	!LO:LB:g=original	!
.	.	.	.	2B/	.
=6-	=6-	=6-	=6-	=6-	=6-
*	*	*lig	*	*	*
1G\	.	1C/	.	0c\	.
2G/	.	1C/	.	.	.
*	*	*Xlig	*	*	*
2E/	.	.	.	.	.
=7-	=7-	=7-	=7-	=7-	=7-
1D\	.	1D/	.	2A/	.
.	.	.	.	2B/	.
1C/	.	1E/	.	1c\	.
=8-	=8-	=8-	=8-	=8-	=8-
1D\	.	1F/	.	2A/	.
.	.	.	.	1d\	.
1AA/	.	1E/	.	.	.
.	.	.	.	2c/	.
=9-	=9-	=9-	=9-	=9-	=9-
0D\;l	-ctus	0D/l	-ctus	0d\;l	-ctus
.	.	.	.	.	.
=10||	=10||	=10||	=10||	=10||	=10||
*lig	*	*	*	*lig	*
1D\	San-	1D/	San-	1d\	San-
*	*	*lig	*	*	*
1AA/	.	1A\	.	1e\	.
*Xlig	*	*	*	*Xlig	*
=11-	=11-	=11-	=11-	=11-	=11-
1E\	.	1G/	.	1e\	.
*	*	*Xlig	*	*	*
2AA/	.	1A\	.	1c\	.
1A\	.	.	.	.	.
=12-	=12-	=12-	=12-	=12-	=12-
.	.	1B\	.	1g\	.
*2\right	*	*	*	*custos:e	*
2G\	.	.	.	.	.
*custos:A	*	*	*	*	*
!LO:LB:g=original	!	!	!	!	!
2A\	.	1c\	.	0e\	.
2AA/	.	.	.	.	.
=13-	=13-	=13-	=13-	=13-	=13-
1E\	.	1B\	.	.	.
2F\	.	1A\	.	2c/	.
1D\	.	.	.	2d/	.
=14-	=14-	=14-	=14-	=14-	=14-
.	.	1G/	.	1e\	.
2C/	.	.	.	.	.
1D\	.	1F/	.	2A/	.
.	.	.	.	1d\	.
=15-	=15-	=15-	=15-	=15-	=15-
1AA/	.	1E/	.	.	.
.	.	.	.	1c\	.
1D\	.	1D/	.	.	.
.	.	.	.	2d/	.
*	*	*custos:G	*	*	*
!	!	!LO:LB:g=original	!	!	!
=16-	=16-	=16-	=16-	=16-	=16-
*	*	*lig	*	*lig	*
1C/	.	1G/	.	1e\	.
1BB/	.	1G/	.	1d\	.
*	*	*Xlig	*	*Xlig	*
=17-	=17-	=17-	=17-	=17-	=17-
1AA/	.	0A\l	-ctus	1c\	.
1AA/;	-ctus	.	.	1c\;	-ctus
=18||	=18||	=18||	=18||	=18||	=18||
*	*	*	*	*lig	*
1D\	San-	1D/	San-	1d\	San-
2AA/	.	1E/	.	1c\	.
2C/	.	.	.	.	.
*custos:D	*	*	*	*Xlig	*
!LO:LB:g=original	!	!	!	!	!
=19-	=19-	=19-	=19-	=19-	=19-
*lig	*	*	*	*	*
1D\	.	1F/	.	2A/	.
*	*	*	*	*custos:d	*
!	!	!	!	!LO:LB:g=original	!
.	.	.	.	1d\	.
1AA/	.	1E/	.	.	.
.	.	.	.	2c/	.
*Xlig	*	*	*	*	*
=20-	=20-	=20-	=20-	=20-	=20-
1A\	.	1D/	.	1d\	.
*	*	*lig	*	*	*
1G\	.	1G/	.	1B/	.
=21-	=21-	=21-	=21-	=21-	=21-
2E/	.	1G/	.	2c/	.
*	*	*Xlig	*	*	*
2C/	.	.	.	1e\	.
2D/	.	1F/	.	.	.
2BB/	.	.	.	1d\	.
=22-	=22-	=22-	=22-	=22-	=22-
1C/	.	1E/	.	.	.
.	.	.	.	1c\	.
1GG/	.	1D/	.	.	.
.	.	.	.	2B/	.
=23-	=23-	=23-	=23-	=23-	=23-
*	*	*lig	*	*	*
1G\	.	1C/	.	0c\	.
2G\	.	1C/	.	.	.
*	*	*Xlig	*	*	*
2E/	.	.	.	.	.
=24-	=24-	=24-	=24-	=24-	=24-
1D\	.	1D/	.	2A/	.
.	.	.	.	2B/	.
1C/	.	1E/	.	1c\	.
=25-	=25-	=25-	=25-	=25-	=25-
1D\	.	1F/	.	2A/	.
.	.	.	.	1d\	.
*	*	*lig	*	*custos:c	*
!	!	!	!	!LO:LB:g=original	!
1AA/	-ctus	1E/	-ctus	.	.
.	.	.	.	2c/	.
=26-	=26-	=26-	=26-	=26-	=26-
1D\,<	.	1D/	.	1d\	-ctus
*custos:D	*	*Xlig	*	*	*
!LO:LB:g=original	!	!	!	!	!
1D\	do-	1D/	do-	1d\	do-
=27-	=27-	=27-	=27-	=27-	=27-
1D\	-mi-	1D/	-mi-	1d\	-mi-
2AA/	-nus	1A\	.	2c/	.
2D/	.	.	.	2d/	.
=28-	=28-	=28-	=28-	=28-	=28-
*	*	*	*	*2\right	*
2C/	.	1A\	-nus	2e\	-nus
2D,</	.	.	.	2f\	.
*	*	*lig	*	*	*
1AA/	de-	1A\	de-	2e\	.
.	.	.	.	1c\	de-
=29-	=29-	=29-	=29-	=29-	=29-
2C/	.	1G/	.	.	.
2GG/	-us	.	.	2d/	.
2AA/	.	1E/	.	2c/	.
2GG/	.	.	.	2B/	.
*	*	*Xlig	*	*	*
=30-	=30-	=30-	=30-	=30-	=30-
2FF/	.	1F/	.	2A/	.
*	*	*custos:E	*	*custos:d	*
!	!	!LO:LB:g=original	!	!LO:LB:g=original	!
2F\	.	.	.	1d\	.
*	*	*lig	*	*	*
1G\	.	1E/	-us	.	.
.	.	.	.	2c/	.
=31-	=31-	=31-	=31-	=31-	=31-
2A\	.	1D/	.	1d\	-vs
2F\	.	.	.	.	.
*	*	*Xlig	*	*	*
2E/	Sab-	1G/	ſab-	1e\	ſab-
2C/	.	.	.	.	.
=32-	=32-	=32-	=32-	=32-	=32-
*	*	*lig	*	*	*
2G\	.	1G/	-ba-	2d\	.
*custos:E	*	*	*	*	*
!LO:LB:g=original	!	!	!	!	!
1E\	.	.	.	2e\	.
.	.	1F/	.	1f\	.
2D/	.	.	.	.	.
*	*	*Xlig	*	*	*
=33-	=33-	=33-	=33-	=33-	=33-
1E\	.	1G/	.	1e\	-ba-
1AA/	-ba-	[1A\l	-oth	1e\	-oth
=34-	=34-	=34-	=34-	=34-	=34-
0AA/;l	-oth	0A\]	.	0e\;<l	.
=35||	=35||	=35||	=35||	=35||	=35||
1C/	Ple-	1C/	Ple-	1c\	Ple-
*lig	*	*lig	*	*	*
1C/	-ni	1E/	-ni	1c\	-ni
=36-	=36-	=36-	=36-	=36-	=36-
1D\,<	.	1D/	.	2A/	.
*	*	*	*	*custos:B	*
!	!	!	!	!LO:PB:g=original	!
.	.	.	.	2B/	.
*Xlig	*	*Xlig	*	*	*
*lig	*	*	*	*	*
1C/	ſunt	1G/	ſu(n)t	1c\	sunt
=37-	=37-	=37-	=37-	=37-	=37-
1BB/,<	.	1G/	c(ae)-	1d\	ce-
*Xlig	*	*	*	*	*
1AA/	c(ae)-	1A\	.	1c\	.
=38-	=38-	=38-	=38-	=38-	=38-
1AA/,<	-li	1A\	-li	2c/	-li
.	.	.	.	1e\	et
1A\	et	1A\	et	.	.
.	.	.	.	2f\	.
=39-	=39-	=39-	=39-	=39-	=39-
1G\	.	1B\	.	1g\	ter-
*lig	*	*lig	*	*	*
1C/	ter-	1c\	ter-	1e\	.
=40-	=40-	=40-	=40-	=40-	=40-
1GG/	.	1B\	.	2d/	-ra
.	.	.	.	1g\	.
*Xlig	*	*Xlig	*	*	*
*custos:AA	*	*lig	*	*	*
!LO:PB:g=original	!	!	!	!	!
2AA/	.	1A\	-ra	.	.
2BB/	.	.	.	2f\	.
=41-	=41-	=41-	=41-	=41-	=41-
2C/	.	1A\	.	2e\	.
*	*	*Xlig	*	*	*
2D/	.	.	.	2f\	.
2GG/	.	1G/	.	2g\	.
!	!	!	!	!LO:LB:g=original	!
2G,<\	-ra	.	.	2d/	.
=42-	=42-	=42-	=42-	=42-	=42-
*	*	*lig	*	*lig	*
2F/	glo-	1d\	glo-	1f\	glo-
2G\	.	.	.	.	.
1A\	-ri-	1c\	.	1e\	.
*	*	*Xlig	*	*Xlig	*
*	*	*custos:d	*	*	*
!	!	!LO:LB:g=original	!	!	!
=43-	=43-	=43-	=43-	=43-	=43-
1F\	.	1d\	-ri-	1f\	-ri-
2E/	.	1e\	.	1g\	-a
1C/	-a	.	.	.	.
=44-	=44-	=44-	=44-	=44-	=44-
*	*	*lig	*	*	*
.	.	1c\	-a	2G,</	.
2AA/	.	.	.	2A/	.
2GG/	.	1B\	.	1B/	.
1G\	.	.	.	.	.
=45-	=45-	=45-	=45-	=45-	=45-
.	.	1A\	.	2c/	.
*	*	*Xlig	*	*	*
2F/	.	.	.	2d/	.
1E\	tu-	1G/	tu-	1e\	.
*custos:C	*	*	*	*	*
!LO:LB:g=original	!	!	!	!	!
=46-	=46-	=46-	=46-	=46-	=46-
2C/	.	1A\	.	2e\	.
1D\	.	.	.	2f\	tu-
.	.	[1A\l	-a	1f\	.
2D/	.	.	.	.	.
=47-	=47-	=47-	=47-	=47-	=47-
0AA/;l	-a	0A\]	.	1e\	.
.	.	.	.	1e\;<	-a
!	!	!	!	!LO:LB:g=original	!
=48||	=48||	=48||	=48||	=48||	=48||
*lig	*	*lig	*	*	*
1AA/	O-	1A\	O	0e\	O-
1C/	.	1G/	.	.	.
*Xlig	*	*	*	*	*
=49-	=49-	=49-	=49-	=49-	=49-
1C/	.	1E/	.	2c/	.
.	.	.	.	1e\	.
*lig	*	*Xlig	*	*	*
1D\	.	1F/	.	.	.
.	.	.	.	1d\	.
=50-	=50-	=50-	=50-	=50-	=50-
*	*	*lig	*	*	*
1AA/	.	1E/	.	.	.
.	.	.	.	2c/	.
*Xlig	*	*	*	*	*
1A\	.	1D/	.	1d\	.
*	*	*Xlig	*	*	*
=51-	=51-	=51-	=51-	=51-	=51-
2G\	.	1G/	.	2B/	.
2E/	.	.	.	2c/	.
1D\	-ſan-	1A\	.	1d\	.
=52-	=52-	=52-	=52-	=52-	=52-
2BB/	.	1G/	.	2d/	-san-
2C/	.	.	.	2e/	.
*custos:AA	*	*	*	*	*
!LO:LB:g=original	!	!	!	!	!
2AA/	-na	1A\	.	2c/	.
1D\	in	.	.	2d/	-na
=53-	=53-	=53-	=53-	=53-	=53-
.	.	1A\	.	1e\	.
2C/	ex-	.	.	.	.
*	*	*	*	*custos:e	*
2D/	.	1A\	.	2f\	in
!	!	!	!	!LO:LB:g=original	!
2E/	.	.	.	1e\	ex-
=54-	=54-	=54-	=54-	=54-	=54-
!	!	!LO:TX:t=P:problem=dekomplet - karta urwana	!	!	!
1F\	.	1A\	.	.	.
.	.	.	.	2d/	.
*lig	*	*	*	*	*
!	!	!	!	!LO:SIC:v:l:s=-cel-	!
1E\	.	1ryy	.	1e\	-el-
=55-	=55-	=55-	=55-	=55-	=55-
1C/	.	0ryy	.	1e\	.
*Xlig	*	*	*	*	*
*lig	*	*	*	*	*
1D\	.	.	.	2A/	.
.	.	.	.	1d\	.
=56-	=56-	=56-	=56-	=56-	=56-
1AA/	.	0ryy	.	.	.
.	.	.	.	1c\	.
*Xlig	*	*	*	*	*
2A\	.	.	.	.	.
2F\	.	.	.	2B/	.
=57-	=57-	=57-	=57-	=57-	=57-
1G\	.	1C/	.	1c\	.
2F\	.	1D/	.	2A/	.
1D\	-cel-	.	.	2d/	.
=58-	=58-	=58-	=58-	=58-	=58-
.	.	1E/	.	2B/	.
2C/	.	.	.	2c/	.
*lig	*	*	*	*	*
1D\	.	1F/	.	2A/	.
.	.	.	.	1d\	.
*	*	*	*	*custos:c	*
!	!	!	!	!LO:LB:g=original	!
=59-	=59-	=59-	=59-	=59-	=59-
1AA/	.	0ryy	.	.	.
.	.	.	.	2c/	.
*Xlig	*	*	*	*	*
[1D\;l	-ſis	.	.	1d\	.
=60-	=60-	=60-	=60-	=60-	=60-
0D\]	.	0ryy	.	0d\;l	-sis
*custos:G	*	*	*	*	*
==	==	==	==	==	==
*-	*-	*-	*-	*-	*-
!!!system-decoration: [(s1,s2,s3)]
!!!RDF**kern: < = below
!!!RDF**kern: l = terminal long
!!!ENC: Mateusz Solarz
!!!END: 2021-12-30
!!!EED: Andrzej Borzym
!!!EEV: 2022-01-05
